_site/images/homepage/config-1.svg

<svg fill="none" height="281" viewBox="0 0 269 281" width="269" xmlns="http://www.w3.org/2000/svg" xmlns:xlink="http://www.w3.org/1999/xlink"><filter id="a" color-interpolation-filters="sRGB" filterUnits="userSpaceOnUse" height="281" width="269" x="0" y="0"><feFlood flood-opacity="0" result="BackgroundImageFix"/><feColorMatrix in="SourceAlpha" type="matrix" values="0 0 0 0 0 0 0 0 0 0 0 0 0 0 0 0 0 0 127 0"/><feOffset dy="5"/><feGaussianBlur stdDeviation="6"/><feColorMatrix type="matrix" values="0 0 0 0 0 0 0 0 0 0.351917 0 0 0 0 0.429167 0 0 0 0.08 0"/><feBlend in2="BackgroundImageFix" mode="normal" result="effect1_dropShadow"/><feBlend in="SourceGraphic" in2="effect1_dropShadow" mode="normal" result="shape"/></filter><g filter="url(#a)"><rect fill="#f9fcff" height="257" rx="15" width="245" x="12" y="7"/></g><path d="m82.4 52.144c-1.12 0-2.1013-.24-2.944-.72-.832-.48-1.472-1.1573-1.92-2.032-.448-.8853-.672-1.92-.672-3.104 0-1.1733.224-2.1973.672-3.072.448-.8853 1.088-1.5627 1.92-2.032.8427-.48 1.824-.72 2.944-.72.768 0 1.488.1227 2.16.368.6827.2347 1.248.5653 1.696.992l-.672 1.504c-.512-.416-1.024-.7147-1.536-.896-.5013-.192-1.04-.288-1.616-.288-1.0987 0-1.952.3573-2.56 1.072-.5973.7147-.896 1.7387-.896 3.072 0 1.344.2987 2.3787.896 3.104.5973.7147 1.4507 1.072 2.56 1.072.576 0 1.1147-.0907 1.616-.272.512-.192 1.024-.496 1.536-.912l.672 1.504c-.448.4267-1.0133.7627-1.696 1.008-.672.2347-1.392.352-2.16.352zm9.9931-8.416c.3094 0 .576.0427.8.128l-.016 1.824c-.3413-.1387-.6933-.208-1.056-.208-.6826 0-1.2053.1973-1.568.592-.352.3947-.528.9173-.528 1.568v4.368h-1.984v-5.792c0-.8533-.0426-1.616-.128-2.288h1.872l.16 1.424c.2027-.5227.5227-.9227.96-1.2.4374-.2773.9334-.416 1.488-.416zm8.8299 4.336h-5.5685c.0427.864.256 1.504.64 1.92.3947.4053.976.608 1.744.608.8853 0 1.7067-.288 2.4645-.864l.576 1.376c-.384.3093-.859.56-1.4245.752-.5547.1813-1.12.272-1.696.272-1.3227 0-2.3627-.3733-3.12-1.12s-1.136-1.7707-1.136-3.072c0-.8213.1653-1.552.496-2.192s.7947-1.136 1.392-1.488c.5973-.3627 1.2747-.544 2.032-.544 1.1093 0 1.984.3627 2.6245 1.088.65.7147.976 1.7013.976 2.96zm-3.5525-2.912c-.5333 0-.9707.16-1.312.48-.3307.3093-.544.7627-.64 1.36h3.76c-.064-.608-.2507-1.0667-.56-1.376-.2987-.3093-.7147-.464-1.248-.464zm12.9735-1.232v8.08h-1.968v-1.296c-.245.448-.597.8-1.056 1.056-.459.2453-.981.368-1.568.368-.704 0-1.328-.1707-1.872-.512s-.965-.8267-1.264-1.456-.448-1.36-.448-2.192.149-1.568.448-2.208c.309-.6507.736-1.152 1.28-1.504.544-.3627 1.163-.544 1.856-.544.587 0 1.109.128 1.568.384.459.2453.811.592 1.056 1.04v-1.216zm-4.048 6.64c.661 0 1.173-.2293 1.536-.688s.544-1.104.544-1.936c0-.8533-.181-1.5093-.544-1.968s-.88-.688-1.552-.688c-.661 0-1.179.24-1.552.72-.363.4693-.544 1.1253-.544 1.968 0 .832.181 1.472.544 1.92.373.448.896.672 1.568.672zm8.77-5.136v3.616c0 .9493.443 1.424 1.328 1.424.246 0 .512-.0427.8-.128v1.584c-.352.128-.778.192-1.28.192-.917 0-1.621-.256-2.112-.768-.49-.512-.736-1.248-.736-2.208v-3.712h-1.552v-1.504h1.552v-1.968l2-.672v2.64h2.144v1.504zm10.591 2.64h-5.568c.043.864.256 1.504.64 1.92.395.4053.976.608 1.744.608.885 0 1.707-.288 2.464-.864l.576 1.376c-.384.3093-.859.56-1.424.752-.555.1813-1.12.272-1.696.272-1.323 0-2.363-.3733-3.12-1.12s-1.136-1.7707-1.136-3.072c0-.8213.165-1.552.496-2.192s.795-1.136 1.392-1.488c.597-.3627 1.275-.544 2.032-.544 1.109 0 1.984.3627 2.624 1.088.651.7147.976 1.7013.976 2.96zm-3.552-2.912c-.533 0-.971.16-1.312.48-.331.3093-.544.7627-.64 1.36h3.76c-.064-.608-.251-1.0667-.56-1.376-.299-.3093-.715-.464-1.248-.464zm17.348 4.176h-5.568l-1.152 2.672h-2.08l5.152-11.392h1.68l5.168 11.392h-2.064zm-.688-1.6-2.096-4.88-2.096 4.88zm8.64 4.4c-.843 0-1.573-.1707-2.192-.512s-1.093-.8213-1.424-1.44c-.331-.6293-.496-1.3653-.496-2.208s.171-1.584.512-2.224c.352-.64.843-1.136 1.472-1.488.64-.3627 1.376-.544 2.208-.544.576 0 1.131.0907 1.664.272.544.1813.976.432 1.296.752l-.56 1.408c-.341-.2773-.704-.4853-1.088-.624-.384-.1493-.763-.224-1.136-.224-.725 0-1.291.2293-1.696.688-.405.448-.608 1.0987-.608 1.952s.197 1.504.592 1.952c.405.448.976.672 1.712.672.373 0 .752-.0747 1.136-.224s.747-.3627 1.088-.64l.56 1.408c-.341.32-.784.5707-1.328.752s-1.115.272-1.712.272zm8.047 0c-.843 0-1.573-.1707-2.192-.512s-1.093-.8213-1.424-1.44c-.331-.6293-.496-1.3653-.496-2.208s.171-1.584.512-2.224c.352-.64.843-1.136 1.472-1.488.64-.3627 1.376-.544 2.208-.544.576 0 1.131.0907 1.664.272.544.1813.976.432 1.296.752l-.56 1.408c-.341-.2773-.704-.4853-1.088-.624-.384-.1493-.763-.224-1.136-.224-.725 0-1.291.2293-1.696.688-.405.448-.608 1.0987-.608 1.952s.197 1.504.592 1.952c.405.448.976.672 1.712.672.373 0 .752-.0747 1.136-.224s.747-.3627 1.088-.64l.56 1.408c-.341.32-.784.5707-1.328.752s-1.115.272-1.712.272zm8.047 0c-.821 0-1.547-.1707-2.176-.512-.619-.3413-1.099-.8267-1.44-1.456-.331-.64-.496-1.3867-.496-2.24s.165-1.5947.496-2.224c.341-.64.821-1.1307 1.44-1.472.629-.3413 1.355-.512 2.176-.512.811 0 1.525.1707 2.144.512s1.093.832 1.424 1.472c.341.6293.512 1.3707.512 2.224s-.171 1.6-.512 2.24c-.331.6293-.805 1.1147-1.424 1.456s-1.333.512-2.144.512zm-.016-1.568c.683 0 1.2-.2187 1.552-.656.363-.448.544-1.1093.544-1.984 0-.864-.181-1.52-.544-1.968-.363-.4587-.875-.688-1.536-.688-.672 0-1.189.2293-1.552.688-.363.448-.544 1.104-.544 1.968 0 .8747.176 1.536.528 1.984.363.4373.88.656 1.552.656zm13.181-6.64v8.08h-1.952v-1.248c-.256.448-.598.7893-1.024 1.024-.427.2347-.918.352-1.472.352-1.974 0-2.96-1.1093-2.96-3.328v-4.88h1.984v4.896c0 .5867.117 1.0187.352 1.296.245.2773.618.416 1.12.416.586 0 1.056-.192 1.408-.576s.528-.896.528-1.536v-4.496zm6.795-.208c1.931 0 2.896 1.1093 2.896 3.328v4.96h-2v-4.864c0-.64-.123-1.104-.368-1.392-.245-.2987-.624-.448-1.136-.448-.608 0-1.099.1973-1.472.592-.373.384-.56.896-.56 1.536v4.576h-1.984v-5.792c0-.8533-.043-1.616-.128-2.288h1.872l.144 1.328c.277-.4907.651-.8693 1.12-1.136.48-.2667 1.019-.4 1.616-.4zm7.561 1.712v3.616c0 .9493.442 1.424 1.328 1.424.245 0 .512-.0427.8-.128v1.584c-.352.128-.779.192-1.28.192-.918 0-1.622-.256-2.112-.768-.491-.512-.736-1.248-.736-2.208v-3.712h-1.552v-1.504h1.552v-1.968l2-.672v2.64h2.144v1.504z" fill="#00769d"/><g fill="#fff" stroke="#dce7f1"><rect height="27" rx="13.5" width="200" x="34.5" y="75.5"/><rect height="27" rx="13.5" width="200" x="34.5" y="115.5"/><rect height="27" rx="13.5" width="200" x="34.5" y="155.5"/></g><rect fill="#00a0b6" height="27" rx="13.5" stroke="#00a0b6" width="200" x="34.5" y="209.5"/><rect fill="#ebeff3" height="6" rx="3" width="42" x="45" y="166"/><rect fill="#fff" height="6" rx="3" width="42" x="114" y="220"/><rect fill="#ebeff3" height="6" rx="3" width="19" x="45" y="86"/><rect fill="#ebeff3" height="6" rx="3" width="42" x="68" y="86"/><rect fill="#ebeff3" height="6" rx="3" width="52" x="45" y="126"/></svg>

<svg width="269" height="281" viewBox="0 0 269 281" fill="none" xmlns="http://www.w3.org/2000/svg">
<g filter="url(#filter0_d)">
<rect x="12" y="7" width="245" height="257" rx="15" fill="#F9FCFF"/>
</g>
<path d="M82.4 52.144C81.28 52.144 80.2987 51.904 79.456 51.424C78.624 50.944 77.984 50.2667 77.536 49.392C77.088 48.5067 76.864 47.472 76.864 46.288C76.864 45.1147 77.088 44.0907 77.536 43.216C77.984 42.3307 78.624 41.6533 79.456 41.184C80.2987 40.704 81.28 40.464 82.4 40.464C83.168 40.464 83.888 40.5867 84.56 40.832C85.2427 41.0667 85.808 41.3973 86.256 41.824L85.584 43.328C85.072 42.912 84.56 42.6133 84.048 42.432C83.5467 42.24 83.008 42.144 82.432 42.144C81.3333 42.144 80.48 42.5013 79.872 43.216C79.2747 43.9307 78.976 44.9547 78.976 46.288C78.976 47.632 79.2747 48.6667 79.872 49.392C80.4693 50.1067 81.3227 50.464 82.432 50.464C83.008 50.464 83.5467 50.3733 84.048 50.192C84.56 50 85.072 49.696 85.584 49.28L86.256 50.784C85.808 51.2107 85.2427 51.5467 84.56 51.792C83.888 52.0267 83.168 52.144 82.4 52.144ZM92.3931 43.728C92.7025 43.728 92.9691 43.7707 93.1931 43.856L93.1771 45.68C92.8358 45.5413 92.4838 45.472 92.1211 45.472C91.4385 45.472 90.9158 45.6693 90.5531 46.064C90.2011 46.4587 90.0251 46.9813 90.0251 47.632V52H88.0411V46.208C88.0411 45.3547 87.9985 44.592 87.9131 43.92H89.7851L89.9451 45.344C90.1478 44.8213 90.4678 44.4213 90.9051 44.144C91.3425 43.8667 91.8385 43.728 92.3931 43.728ZM101.223 48.064H95.6545C95.6972 48.928 95.9105 49.568 96.2945 49.984C96.6892 50.3893 97.2705 50.592 98.0385 50.592C98.9238 50.592 99.7452 50.304 100.503 49.728L101.079 51.104C100.695 51.4133 100.22 51.664 99.6545 51.856C99.0998 52.0373 98.5345 52.128 97.9585 52.128C96.6358 52.128 95.5958 51.7547 94.8385 51.008C94.0812 50.2613 93.7025 49.2373 93.7025 47.936C93.7025 47.1147 93.8678 46.384 94.1985 45.744C94.5292 45.104 94.9932 44.608 95.5905 44.256C96.1878 43.8933 96.8652 43.712 97.6225 43.712C98.7318 43.712 99.6065 44.0747 100.247 44.8C100.897 45.5147 101.223 46.5013 101.223 47.76V48.064ZM97.6705 45.152C97.1372 45.152 96.6998 45.312 96.3585 45.632C96.0278 45.9413 95.8145 46.3947 95.7185 46.992H99.4785C99.4145 46.384 99.2278 45.9253 98.9185 45.616C98.6198 45.3067 98.2038 45.152 97.6705 45.152ZM110.644 43.92V52H108.676V50.704C108.431 51.152 108.079 51.504 107.62 51.76C107.161 52.0053 106.639 52.128 106.052 52.128C105.348 52.128 104.724 51.9573 104.18 51.616C103.636 51.2747 103.215 50.7893 102.916 50.16C102.617 49.5307 102.468 48.8 102.468 47.968C102.468 47.136 102.617 46.4 102.916 45.76C103.225 45.1093 103.652 44.608 104.196 44.256C104.74 43.8933 105.359 43.712 106.052 43.712C106.639 43.712 107.161 43.84 107.62 44.096C108.079 44.3413 108.431 44.688 108.676 45.136V43.92H110.644ZM106.596 50.56C107.257 50.56 107.769 50.3307 108.132 49.872C108.495 49.4133 108.676 48.768 108.676 47.936C108.676 47.0827 108.495 46.4267 108.132 45.968C107.769 45.5093 107.252 45.28 106.58 45.28C105.919 45.28 105.401 45.52 105.028 46C104.665 46.4693 104.484 47.1253 104.484 47.968C104.484 48.8 104.665 49.44 105.028 49.888C105.401 50.336 105.924 50.56 106.596 50.56ZM115.366 45.424V49.04C115.366 49.9893 115.809 50.464 116.694 50.464C116.94 50.464 117.206 50.4213 117.494 50.336V51.92C117.142 52.048 116.716 52.112 116.214 52.112C115.297 52.112 114.593 51.856 114.102 51.344C113.612 50.832 113.366 50.096 113.366 49.136V45.424H111.814V43.92H113.366V41.952L115.366 41.28V43.92H117.51V45.424H115.366ZM125.957 48.064H120.389C120.432 48.928 120.645 49.568 121.029 49.984C121.424 50.3893 122.005 50.592 122.773 50.592C123.658 50.592 124.48 50.304 125.237 49.728L125.813 51.104C125.429 51.4133 124.954 51.664 124.389 51.856C123.834 52.0373 123.269 52.128 122.693 52.128C121.37 52.128 120.33 51.7547 119.573 51.008C118.816 50.2613 118.437 49.2373 118.437 47.936C118.437 47.1147 118.602 46.384 118.933 45.744C119.264 45.104 119.728 44.608 120.325 44.256C120.922 43.8933 121.6 43.712 122.357 43.712C123.466 43.712 124.341 44.0747 124.981 44.8C125.632 45.5147 125.957 46.5013 125.957 47.76V48.064ZM122.405 45.152C121.872 45.152 121.434 45.312 121.093 45.632C120.762 45.9413 120.549 46.3947 120.453 46.992H124.213C124.149 46.384 123.962 45.9253 123.653 45.616C123.354 45.3067 122.938 45.152 122.405 45.152ZM139.753 49.328H134.185L133.033 52H130.953L136.105 40.608H137.785L142.953 52H140.889L139.753 49.328ZM139.065 47.728L136.969 42.848L134.873 47.728H139.065ZM147.705 52.128C146.862 52.128 146.132 51.9573 145.513 51.616C144.894 51.2747 144.42 50.7947 144.089 50.176C143.758 49.5467 143.593 48.8107 143.593 47.968C143.593 47.1253 143.764 46.384 144.105 45.744C144.457 45.104 144.948 44.608 145.577 44.256C146.217 43.8933 146.953 43.712 147.785 43.712C148.361 43.712 148.916 43.8027 149.449 43.984C149.993 44.1653 150.425 44.416 150.745 44.736L150.185 46.144C149.844 45.8667 149.481 45.6587 149.097 45.52C148.713 45.3707 148.334 45.296 147.961 45.296C147.236 45.296 146.67 45.5253 146.265 45.984C145.86 46.432 145.657 47.0827 145.657 47.936C145.657 48.7893 145.854 49.44 146.249 49.888C146.654 50.336 147.225 50.56 147.961 50.56C148.334 50.56 148.713 50.4853 149.097 50.336C149.481 50.1867 149.844 49.9733 150.185 49.696L150.745 51.104C150.404 51.424 149.961 51.6747 149.417 51.856C148.873 52.0373 148.302 52.128 147.705 52.128ZM155.752 52.128C154.909 52.128 154.179 51.9573 153.56 51.616C152.941 51.2747 152.467 50.7947 152.136 50.176C151.805 49.5467 151.64 48.8107 151.64 47.968C151.64 47.1253 151.811 46.384 152.152 45.744C152.504 45.104 152.995 44.608 153.624 44.256C154.264 43.8933 155 43.712 155.832 43.712C156.408 43.712 156.963 43.8027 157.496 43.984C158.04 44.1653 158.472 44.416 158.792 44.736L158.232 46.144C157.891 45.8667 157.528 45.6587 157.144 45.52C156.76 45.3707 156.381 45.296 156.008 45.296C155.283 45.296 154.717 45.5253 154.312 45.984C153.907 46.432 153.704 47.0827 153.704 47.936C153.704 48.7893 153.901 49.44 154.296 49.888C154.701 50.336 155.272 50.56 156.008 50.56C156.381 50.56 156.76 50.4853 157.144 50.336C157.528 50.1867 157.891 49.9733 158.232 49.696L158.792 51.104C158.451 51.424 158.008 51.6747 157.464 51.856C156.92 52.0373 156.349 52.128 155.752 52.128ZM163.799 52.128C162.978 52.128 162.252 51.9573 161.623 51.616C161.004 51.2747 160.524 50.7893 160.183 50.16C159.852 49.52 159.687 48.7733 159.687 47.92C159.687 47.0667 159.852 46.3253 160.183 45.696C160.524 45.056 161.004 44.5653 161.623 44.224C162.252 43.8827 162.978 43.712 163.799 43.712C164.61 43.712 165.324 43.8827 165.943 44.224C166.562 44.5653 167.036 45.056 167.367 45.696C167.708 46.3253 167.879 47.0667 167.879 47.92C167.879 48.7733 167.708 49.52 167.367 50.16C167.036 50.7893 166.562 51.2747 165.943 51.616C165.324 51.9573 164.61 52.128 163.799 52.128ZM163.783 50.56C164.466 50.56 164.983 50.3413 165.335 49.904C165.698 49.456 165.879 48.7947 165.879 47.92C165.879 47.056 165.698 46.4 165.335 45.952C164.972 45.4933 164.46 45.264 163.799 45.264C163.127 45.264 162.61 45.4933 162.247 45.952C161.884 46.4 161.703 47.056 161.703 47.92C161.703 48.7947 161.879 49.456 162.231 49.904C162.594 50.3413 163.111 50.56 163.783 50.56ZM176.964 43.92V52H175.012V50.752C174.756 51.2 174.414 51.5413 173.988 51.776C173.561 52.0107 173.07 52.128 172.516 52.128C170.542 52.128 169.556 51.0187 169.556 48.8V43.92H171.54V48.816C171.54 49.4027 171.657 49.8347 171.892 50.112C172.137 50.3893 172.51 50.528 173.012 50.528C173.598 50.528 174.068 50.336 174.42 49.952C174.772 49.568 174.948 49.056 174.948 48.416V43.92H176.964ZM183.759 43.712C185.69 43.712 186.655 44.8213 186.655 47.04V52H184.655V47.136C184.655 46.496 184.532 46.032 184.287 45.744C184.042 45.4453 183.663 45.296 183.151 45.296C182.543 45.296 182.052 45.4933 181.679 45.888C181.306 46.272 181.119 46.784 181.119 47.424V52H179.135V46.208C179.135 45.3547 179.092 44.592 179.007 43.92H180.879L181.023 45.248C181.3 44.7573 181.674 44.3787 182.143 44.112C182.623 43.8453 183.162 43.712 183.759 43.712ZM191.32 45.424V49.04C191.32 49.9893 191.762 50.464 192.648 50.464C192.893 50.464 193.16 50.4213 193.448 50.336V51.92C193.096 52.048 192.669 52.112 192.168 52.112C191.25 52.112 190.546 51.856 190.056 51.344C189.565 50.832 189.32 50.096 189.32 49.136V45.424H187.768V43.92H189.32V41.952L191.32 41.28V43.92H193.464V45.424H191.32Z" fill="#00769D"/>
<rect x="34.5" y="75.5" width="200" height="27" rx="13.5" fill="white" stroke="#DCE7F1"/>
<rect x="34.5" y="115.5" width="200" height="27" rx="13.5" fill="white" stroke="#DCE7F1"/>
<rect x="34.5" y="155.5" width="200" height="27" rx="13.5" fill="white" stroke="#DCE7F1"/>
<rect x="34.5" y="209.5" width="200" height="27" rx="13.5" fill="#00A0B6" stroke="#00A0B6"/>
<rect x="45" y="166" width="42" height="6" rx="3" fill="#EBEFF3"/>
<rect x="114" y="220" width="42" height="6" rx="3" fill="white"/>
<rect x="45" y="86" width="19" height="6" rx="3" fill="#EBEFF3"/>
<rect x="68" y="86" width="42" height="6" rx="3" fill="#EBEFF3"/>
<rect x="45" y="126" width="52" height="6" rx="3" fill="#EBEFF3"/>
<defs>
<filter id="filter0_d" x="0" y="0" width="269" height="281" filterUnits="userSpaceOnUse" color-interpolation-filters="sRGB">
<feFlood flood-opacity="0" result="BackgroundImageFix"/>
<feColorMatrix in="SourceAlpha" type="matrix" values="0 0 0 0 0 0 0 0 0 0 0 0 0 0 0 0 0 0 127 0"/>
<feOffset dy="5"/>
<feGaussianBlur stdDeviation="6"/>
<feColorMatrix type="matrix" values="0 0 0 0 0 0 0 0 0 0.351917 0 0 0 0 0.429167 0 0 0 0.08 0"/>
<feBlend mode="normal" in2="BackgroundImageFix" result="effect1_dropShadow"/>
<feBlend mode="normal" in="SourceGraphic" in2="effect1_dropShadow" result="shape"/>
</filter>
</defs>
</svg>
